X:184
T: Deine Schnheit wird vergehn (2-88) S. 258
N: P0959
O: Lothringen
S: PINCK, Louis: Verklingende Weisen, Bd 2, Metz 1928]
R: ???]
M: 4/4
L: 1/16
K: F
A4A2G2 | F4F3FB4B4 | A8
c4f4 | d4c2B2A4G4 | F8
A4A4 | F4F4B4B4 | A8
c4f4 | d4c2B2A4G4 | F8
A4A4 | F8B4B4 | A8
c4f4 | d4c2B2A4G4 | F8

@@@ Tune index: 7734
